X:13549
T: Pravo Horo
R: pravo
O: Bulgaria
B:
D:
Z: John Chambers <jc@eddie.mit.edu> http://eddie.mit.edu/~jc/music/
M: 2/4
L: 1/8
K: Bm
P: A
|: "Bm"F>B ^A>B | c/d/z ~c>B | "F#"^A4 | "Bm"Bc "Em"B2 | ^A>G (3GFE \
|  "Bm"F>B ^A>B | c/d/z ~c>B | "F#"^A4 | "Bm"Bc "Em"B2 | ~^A>G GFE |
| (3FGE (3GEB | | ~^A>G GFE | "F#"{FG}F4 | "Bm"Bc B2 | ~^A>G GFE \
| (3FGE (3GEB | | ~^A>G GFE | "F#"{FG}F4 | F2 F2 :|
P: B
|: "Em"(3FGE (3GEB | | ~^A>G GFE | (3FGE (3GEB | | ~^A>G GFE \
| (3FGE (3GEB | | ~^A>G GG | ~^A>G G1FE |1 "F#"~F>C F>C :|2 "F#"~F2 F2 |]
P: C
|: "F#"f>f f2 | f4 | ~e>d ~c>B | "Bm"d>d d2 | d4 \
| ~e>d ~c>B | "F#"^A>B c2 | c4 | "Em"~e>d ~c>B | (3^ABc (3BAG | "F#"{FG}F4 |
| "F#"^A>B {cd}c2 | ^A>B c2 | c4 | ~e>d ~c>B |(3^ABc (3BAG | "F#"{FG}F4 | F2 F2 :|
P: D
|: "Bm"{^A}Bz (3Bcd | e>d ~c>B | "Em"^ABc BAG | "F#"~F2 ~cF \
|  "Bm"{^A}Bz (3Bcd | e>d ~c>B | "Em"^ABc BAG | "F#"~F>C ~F2 :|
P: E
|: "F#"^ABc ABc | "Em"B^AG "F#"~FC | ^ABc "#m"BAG | "F#"~F2 cF \
|  "F#"^ABc ABc | "Em"B^AG "F#"~FC | ^ABc "#m"BAG |1 "F#"~F>C ~F2 :|2 "F#"F2 F2 |]
